X: 24680
T: MacLaine Of Loch Buie
R: reel
M: 4/4
K: Amixolydian
e2 de A3B|g2 fg BGBd|e2 de edea|1 gedB BAA2:|2 gedB A3 e||
a2 ag aeef|gage fdcd|eaag aeea|gedB BAA2|a2 ag aeef|gage fdcd|
g2 ag geea|1 gedB A3a:|2 gedB A4||

